icons/typhoon-line.svg

<svg xmlns="http://www.w3.org/2000/svg" width="24" height="24" fill="none"><g clip-path="url(#a)"><g><path fill="#121212" d="M17.654 1.69995L14.872 4.23295C16.167 4.62414 17.359 5.29803 18.362 6.20595C21.874 9.40595 21.874 14.594 18.362 17.794C15.77 20.154 11.764 21.656 6.34597 22.2999L9.12797 19.767C7.83292 19.3758 6.6409 18.7019 5.63797 17.794C2.12597 14.594 2.10497 9.42495 5.63797 6.20595C8.22997 3.84595 12.237 2.34395 17.655 1.69995H17.654ZM12 5.99995C8.13397 5.99995 4.99997 8.68595 4.99997 12C4.99997 15.314 8.13397 18 12 18C15.866 18 19 15.314 19 12C19 8.68595 15.866 5.99995 12 5.99995ZM12 8.29995C14.21 8.29995 16 9.95695 16 12C16 14.043 14.21 15.7 12 15.7C9.78997 15.7 7.99997 14.043 7.99997 12C7.99997 9.95695 9.78997 8.29995 12 8.29995ZM12 10.3C10.862 10.3 9.99997 11.097 9.99997 12C9.99997 12.903 10.862 13.7 12 13.7C13.138 13.7 14 12.903 14 12C14 11.097 13.138 10.3 12 10.3Z"/></g></g><defs><clipPath id="a"><rect width="24" height="24" fill="white"/></clipPath></defs></svg>

<svg width="24" height="24" fill="none" xmlns="http://www.w3.org/2000/svg"><g clip-path="url(#a)"><path d="m17.654 1.7-2.782 2.533a9.138 9.138 0 0 1 3.49 1.973c3.512 3.2 3.512 8.388 0 11.588-2.592 2.36-6.598 3.862-12.016 4.506l2.782-2.533a9.138 9.138 0 0 1-3.49-1.973c-3.512-3.2-3.533-8.37 0-11.588C8.23 3.846 12.237 2.344 17.655 1.7h-.001ZM12 6c-3.866 0-7 2.686-7 6s3.134 6 7 6 7-2.686 7-6-3.134-6-7-6Zm0 2.3c2.21 0 4 1.657 4 3.7s-1.79 3.7-4 3.7-4-1.657-4-3.7 1.79-3.7 4-3.7Zm0 2c-1.138 0-2 .797-2 1.7 0 .903.862 1.7 2 1.7s2-.797 2-1.7c0-.903-.862-1.7-2-1.7Z" /></g><defs><clipPath id="a"><path fill="#fff" d="M0 0h24v24H0z"/></clipPath></defs></svg>
